X: 22211
T: La Citternalia
R: mazurka
M: 3/4
K: Dmajor
|:A/ B>c|d>A F>A d>c|d>A F>A B>A|c>A ^G>A B>A|G2- G>A B>=c|
c>A ^G>A B>A|c>A ^G>A B>c|1 d>A F>A E>C|D2- D3/2:|2 d>f e>g c>e|d2- d3/2||
|:A/ B>c|d2 f>=f ^f>e|d>A F>A F>D|g2 g>f g>e|c2- c>A ^G>A|
g2 g>f g>e|1 c>A ^G>A =G>E|D>E F>G ^G>A|d2- d3/2:|2 c>a ^g>a =g>e|d2 A2 F2|D2- D2||
|:(3ABc|d>A F>A (3dcd|d>A (3FGA BA|(3cBA ^G>A (3cBA|G2- G2 (3AB=c|
c>A (3G^GA B>A|c>A (3G^GA (3cec|1 d>A (3FDF (3ECE|D4:|2 (3dfe (3gec (3gec|d2- d2||
|:(3ABc|(3dcd f>=f (3^fef|(3dcd A>F (3DFA|(3gag (3fgf (3ecA|G2- G>A ^G>A|
(3gag g>f (3gfe|1 (3cBA ^G>A (3=GFE|D>E (3FG^G B>A|d2- d2:|2 (3ca^g (3a=ge (3cde|(3ded (3cBA (3GFE|D2- D3/2||

